X:1
L:1/16
M:2/4
K:F
 AB | c2F2F2F2 | G2>A2B2 AB | c2F2F2F2 | E2>F2G2 AB | c2F2F2F2 | G2A2B2 A>B | c2f2 cA BG | 
 F4- F4 ||{d} c=B cd _e4 | c=B cd _e4 | GF GA B4 | GF GA B2AB |{d} c=B cd _e2f2 | 
{d} c=B cd _e2 A2_B | c2f2 cA BG | F4- F2 ||
